src/img/channel/channel_49.svg

<svg fill="none" height="45" viewBox="0 0 160 45" width="160" xmlns="http://www.w3.org/2000/svg"><path clip-rule="evenodd" d="m160 22.3719c0 5.9334-8.429 11.6238-23.431 15.8193-15.003 4.1956-35.352 6.5526-56.569 6.5526-21.2173 0-41.5656-2.357-56.5685-6.5526-15.00295-4.1955-23.4315-9.8859-23.4315-15.8193s8.42855-11.6238 23.4315-15.81932c15.0029-4.19555 35.3512-6.55258 56.5685-6.55258 21.217 0 41.566 2.35703 56.569 6.55258 15.002 4.19552 23.431 9.88592 23.431 15.81932z" fill="#ef6708" fill-rule="evenodd"/><g fill="#fff"><path d="m103.477 13.8858c-1.417-.211-2.895-.1049-4.1469.2556-1.9263.2431-1.5166 2.6123-2.1592 3.9884l.0974.31c.41.1863.7352-.0501 1.0651-.1675.201-.1744.389.1086.3544.2724-.7183 2.9089-1.769 5.7003-2.1736 8.7348.135 1.2372 1.2985 1.9713 2.0187 2.8469 2.7101.8647 5.2761-.6161 7.4241-2.3737 2.255-2.4221 3.97-6.3317 2.797-9.7526-.717-2.5139-2.916-3.7628-5.277-4.1143zm-.946 3.7526c.674.1414 1.303.4772 1.741.9932.944 1.1334.794 2.6707.42 3.9773-.583 1.4161-1.712 3.0283-3.352 3.1956.363-2.2865 1.131-4.4799 1.556-6.7778-.06-.8917-.925-1.1638-1.591-1.4244.403-.0605.821-.0487 1.226.0361z"/><path d="m148.404 15.1665c-.797 4.6701-2.079 9.0278-3.33 13.3876-.028.436.214.8696-.04 1.291-1.205.5498-2.82.1448-3.907-.5383-.821-2.4957-.907-5.2262-1.627-7.7119l-1.868 7.7694c-.168.471-.518.8654-1.035.8327-.976-.1296-2.599-.0628-2.89-1.2337 1.219-4.9245 2.203-10.0181 3.921-14.64.301-.9006 1.195-.4137 1.824-.4795 1.152.389 2.524.8402 2.769 2.2935.452 1.3656.701 2.8075 1.011 4.2006l.194-.1906c.46-2.1164.842-4.2834 1.593-6.18 1.029-.5158 2.254.1564 3.163.5697z"/><path d="m132.106 13.9744c-.95-.2164-1.687 1.0448-2.476 1.5414-.258-.4873.112-1.1128-.166-1.5647-.512-.2092-1.126-.2428-1.613-.1033-3.045.9308-5.027 3.7294-5.889 6.6378-.996 3.2353-1.194 6.9611 1.443 9.2786 1.153.9528 2.989 1.1425 4.324.6076 4.874-2.2293 6.16-8.0995 5.875-13.2301-.278-.9886-.355-2.1013-1.073-2.9766-.145-.098-.29-.1598-.425-.1907zm-3.044 3.5421c.643 2.6473-.109 6.1559-1.788 8.1917-.323.2893-.723.5723-1.119.2872-1.29-1.3635-.323-3.6135.185-5.1625.436-1.4193 1.727-2.3361 2.722-3.3164z"/><path d="m121.809 14.866c-.202 1.2578-.26 2.7374-1.375 3.3341-1.716.0531-3.558-.3496-5.228-.1068.263.4077 1.047.5357.946 1.1487.102.4609-.496.9408.045 1.2564 1.246.1142 2.57-.1318 3.777.3308.306 1.1806-.345 2.5084-.856 3.5522l-.559.2451-3.633-.1363-.242.2049c-.187.5535-.547 1.2299-.284 1.8317l3.948.1907c.376.2597.27.7483.278 1.1462-.14.8842-.425 1.6276-.889 2.3155l-.772.2233-5.426-.1978c-.863-.3144-1.455-1.4165-1.646-2.252l.623-3.1862c-.367-.3618-.788-.7274-.645-1.3404.429-1.0974.245-2.9833 1.791-2.994.441-.5587.426-1.4427.664-2.1651-.239-.425-1.05-.1225-1.077-.7623.558-1.2251.16-3.5148 1.874-3.5728 2.493-.1202 5.059.0133 7.617.1703.467.0518 1.169.1217 1.069.7638z"/><path d="m93.8699 13.6981c-.8433-.0524-1.5315 1.1704-2.332 1.496-.1111-.4625.097-.9977-.1156-1.4505-.5244-.3816-1.1874-.1375-1.7411-.0903-4.1217 1.4406-5.7265 5.492-6.3512 9.6652-.2934 2.49.3595 5.328 2.6513 6.6383 1.5706.9214 3.3796.5229 4.8252-.2907 3.986-2.7299 4.9663-8.0677 4.7395-12.77-.2268-1.0143-.3662-2.0886-1.0593-2.9271-.2136-.1732-.4223-.2588-.6168-.2709zm-2.8704 3.7363c.6646 2.5746-.1571 5.9079-1.6509 7.9809-.3584.3025-.7556.6305-1.1912.3802-.5167-.4956-.2283-4.0811.0201-4.851.5181-1.4516 1.4993-2.5843 2.8219-3.5101z"/><path d="m79.8881 15.0094c-.8626 3.686-2.1348 7.105-2.8496 10.8959l.1379.1936c1.3977.1659 2.7797-.0433 4.1219.1796.3648.6953-.1329 1.4389-.2349 2.1774-.2047.6366-.3552 1.2902-.8759 1.7367l-.8373.1998-4.6532-.1823c-1.0551-.6577-1.835-2.0928-2.0969-3.2854.8062-4.5212 2.2256-8.6653 3.5721-12.8318.9853-.4153 2.1485.0369 3.1927.3138.1972.1546.533.2817.5232.6027z"/><path d="m73.4628 14.7822c.0304 1.1722-.45 2.2189-.8838 3.2006l-.6807.2241c-1.6847-.1367-3.3905-.173-5.0386-.1214.2256.3739.7806.4629.9964.9163.0293.5219-.4627 1.1413-.0185 1.4691 1.2657.1083 2.492-.1302 3.779.3289.3011.5868-.0355 1.385-.1545 2.0215-.197.631-.3936 1.2761-.895 1.7334-1.3421.0684-2.7102-.0994-4.0537-.0387-.4528.4385-.4852 1.1172-.6517 1.7239.0779.4591.6517.231.9658.3318 1.0914.0585 2.184-.1488 3.2845.1767.4919 1.0584-.1568 2.327-.5672 3.2526l-.5217.3337-5.6241-.0553c-1.0038-.2422-1.6695-1.3527-1.9172-2.3233.1288-1.0466.4122-2.149.6254-3.2153-.1365-.4668-.8571-.4363-.637-1.0633.1233-1.0743.3355-2.1182.8713-2.949.3142-.3392.8462-.0037 1.103-.5352.0192-.7453.6375-1.362.3273-2.1126-.465-.0261-1.0659-.1277-.9785-.7355.4562-1.2329.3164-3.1558 1.8061-3.4073 2.4355-.133 4.9357-.0075 7.4515.1394.5173.1439 1.3724.0109 1.4119.7049"/><path d="m31.6499 10.0936c-.7662 3.2954-1.921 6.3572-2.7075 9.6539l-2.3292 8.2986c-.0482.5586.3903 1.1578-.149 1.6132-1.2327.4088-2.9406.1686-4.0238-.5128l-.4061-.833c-.621-3.4905-1.2296-6.9982-1.8427-10.4901l-.24.3744-2.7396 11.1702c-.1542.5035-.6749.6196-1.1276.6873-1.1938-.0374-2.8187-.0748-3.3862-1.1657l.0063-.8236c1.4228-6.2027 3.0657-12.2831 4.9664-18.18823.1354-.39366.4195-.79461.8537-.87059 1.5731-.02275 3.0934.59303 4.2366 1.48092.8554 2.3594 1.4059 4.7726 1.7939 7.2124l.206-.207 2.4089-7.65318c.175-.46308.5577-.84069 1.0876-.87645 1.1482.11619 2.8867-.02698 3.3923 1.12973"/><path d="m62.1797 15.253c-.9447 3.4551-2.8521 6.6339-6.2054 8.22 1.0117 2.1521 2.3975 4.2117 3.2142 6.3985-.1931 1.2667-1.6588 1.6355-2.5941 2.0379-1.2617.3206-1.3414-1.2959-1.9291-1.9586l-1.9755-4.0425-.2296.3791c-.2589 1.3755-.521 2.7236-1.0171 3.9379-.6277.5293-1.6702.0112-2.4311-.1102-.4842-.2564-1.2229-.2491-1.3479-.933l3.4416-13.1325c.2771-.7105.3326-1.5301.8523-2.071 1.0624-.2735 2.6004-.0622 3.4822.6204.2772 1.1408-.4739 2.1139-.6226 3.2402-.1948.6037-.4726 1.1742-.572 1.839l.1264.1912c2.558-.9973 3.3055-3.5836 4.4358-5.7172.6024-.3165 1.3982.0426 2.024.1678.5371.1844 1.0693.4266 1.3479.933z"/><path d="m48.4335 15.6615c.2215 1.2052.2785 2.7709-.5903 3.7607-.8811.628-2.0389.6073-3.0074.2498-.6363-.6143.634-1.9386-.5908-1.9732-1.5267 1.383-1.9205 3.4644-2.4713 5.4493.0043.8802-.3991 1.9079.2329 2.5791 1.3048.0725.9589-1.553 1.9107-2.0285.8485-.4461 2.0563-.5551 2.8846.0733.3872.6926.0152 1.7042-.1821 2.4257-.7018 1.6956-1.9705 3.4305-3.8771 3.9181-.9698.2927-2.1165.3382-3.1154-.0983-2.838-2.037-2.2094-5.7395-1.5675-8.9525 1.0147-3.2535 3.0071-7.023 6.8113-7.3595 1.4604-.2028 3.0723.4059 3.5624 1.956z"/><path d="m37.8054 15.0698-.395 1.7388-3.5225 13.013c-1.1124.7676-2.8925.2504-3.9151-.4777-.5683-.7536.1412-1.6205.1082-2.4981 1.1266-4.1553 2.1482-8.4714 3.6963-12.5687.9364-.732 2.4276-.3801 3.5129.0685.2202.176.5692.3841.5152.7242z"/><path d="m150.3 15.7241c.006-.7345.55-1.275 1.234-1.2666.676.0026 1.209.5644 1.2 1.2983-.014.7365-.558 1.2727-1.225 1.2624-.68-.0034-1.218-.5611-1.209-1.2941zm1.205 1.5569c.81.0126 1.52-.6267 1.54-1.5247.01-.8865-.688-1.5416-1.503-1.5551-.816-.0062-1.529.6285-1.54 1.5239-.017.8801.68 1.5353 1.503 1.5559zm-.29-1.4211.295-.0057.432.7877.297-.0002-.465-.7943c.238-.0288.445-.1681.446-.4882.005-.3361-.198-.5021-.604-.5198l-.661.0043-.019 1.7786.268.0022.011-.7644zm0-.2409.017-.5432.34.0011c.178.0043.379.053.376.2752.005.2714-.208.2834-.428.2802l-.305-.0135"/></g></svg>

<svg width="160" height="45" viewBox="0 0 160 45" fill="none" xmlns="http://www.w3.org/2000/svg">
<path fill-rule="evenodd" clip-rule="evenodd" d="M160 22.3719C160 28.3053 151.571 33.9957 136.569 38.1912C121.566 42.3868 101.217 44.7438 80 44.7438C58.7827 44.7438 38.4344 42.3868 23.4315 38.1912C8.42855 33.9957 0 28.3053 0 22.3719C0 16.4385 8.42855 10.7481 23.4315 6.55258C38.4344 2.35703 58.7827 0 80 0C101.217 0 121.566 2.35703 136.569 6.55258C151.571 10.7481 160 16.4385 160 22.3719Z" fill="#EF6708"/>
<path d="M103.477 13.8858C102.06 13.6748 100.582 13.7809 99.3301 14.1414C97.4038 14.3845 97.8135 16.7537 97.1709 18.1298L97.2683 18.4398C97.6783 18.6261 98.0035 18.3897 98.3334 18.2723C98.5344 18.0979 98.7224 18.3809 98.6878 18.5447C97.9695 21.4536 96.9188 24.245 96.5142 27.2795C96.6492 28.5167 97.8127 29.2508 98.5329 30.1264C101.243 30.9911 103.809 29.5103 105.957 27.7527C108.212 25.3306 109.927 21.421 108.754 18.0001C108.037 15.4862 105.838 14.2373 103.477 13.8858ZM102.531 17.6384C103.205 17.7798 103.834 18.1156 104.272 18.6316C105.216 19.765 105.066 21.3023 104.692 22.6089C104.109 24.025 102.98 25.6372 101.34 25.8045C101.703 23.518 102.471 21.3246 102.896 19.0267C102.836 18.135 101.971 17.8629 101.305 17.6023C101.708 17.5418 102.126 17.5536 102.531 17.6384V17.6384Z" fill="white"/>
<path d="M148.404 15.1665C147.607 19.8366 146.325 24.1943 145.074 28.5541C145.046 28.9901 145.288 29.4237 145.034 29.8451C143.829 30.3949 142.214 29.9899 141.127 29.3068C140.306 26.8111 140.22 24.0806 139.5 21.5949L137.632 29.3643C137.464 29.8353 137.114 30.2297 136.597 30.197C135.621 30.0674 133.998 30.1342 133.707 28.9633C134.926 24.0388 135.91 18.9452 137.628 14.3233C137.929 13.4227 138.823 13.9096 139.452 13.8438C140.604 14.2328 141.976 14.684 142.221 16.1373C142.673 17.5029 142.922 18.9448 143.232 20.3379L143.426 20.1473C143.886 18.0309 144.268 15.8639 145.019 13.9673C146.048 13.4515 147.273 14.1237 148.182 14.537L148.404 15.1665" fill="white"/>
<path d="M132.106 13.9744C131.156 13.758 130.419 15.0192 129.63 15.5158C129.372 15.0285 129.742 14.403 129.464 13.9511C128.952 13.7419 128.338 13.7083 127.851 13.8478C124.806 14.7786 122.824 17.5772 121.962 20.4856C120.966 23.7209 120.768 27.4467 123.405 29.7642C124.558 30.717 126.394 30.9067 127.729 30.3718C132.603 28.1425 133.889 22.2723 133.604 17.1417C133.326 16.1531 133.249 15.0404 132.531 14.1651C132.386 14.0671 132.241 14.0053 132.106 13.9744ZM129.062 17.5165C129.705 20.1638 128.953 23.6724 127.274 25.7082C126.951 25.9975 126.551 26.2805 126.155 25.9954C124.865 24.6319 125.832 22.3819 126.34 20.8329C126.776 19.4136 128.067 18.4968 129.062 17.5165Z" fill="white"/>
<path d="M121.809 14.866C121.607 16.1238 121.549 17.6034 120.434 18.2001C118.718 18.2532 116.876 17.8505 115.206 18.0933C115.469 18.501 116.253 18.629 116.152 19.242C116.254 19.7029 115.656 20.1828 116.197 20.4984C117.443 20.6126 118.767 20.3666 119.974 20.8292C120.28 22.0098 119.629 23.3376 119.118 24.3814L118.559 24.6265L114.926 24.4902L114.684 24.6951C114.497 25.2486 114.137 25.925 114.4 26.5268L118.348 26.7175C118.724 26.9772 118.618 27.4658 118.626 27.8637C118.486 28.7479 118.201 29.4913 117.737 30.1792L116.965 30.4025L111.539 30.2047C110.676 29.8903 110.084 28.7882 109.893 27.9527L110.516 24.7665C110.149 24.4047 109.728 24.0391 109.871 23.4261C110.3 22.3287 110.116 20.4428 111.662 20.4321C112.103 19.8734 112.088 18.9894 112.326 18.267C112.087 17.842 111.276 18.1445 111.249 17.5047C111.807 16.2796 111.409 13.9899 113.123 13.9319C115.616 13.8117 118.182 13.9452 120.74 14.1022C121.207 14.154 121.909 14.2239 121.809 14.866Z" fill="white"/>
<path d="M93.8699 13.6981C93.0266 13.6457 92.3384 14.8685 91.5379 15.1941C91.4268 14.7316 91.6349 14.1964 91.4223 13.7436C90.8979 13.362 90.2349 13.6061 89.6812 13.6533C85.5595 15.0939 83.9547 19.1453 83.33 23.3185C83.0366 25.8085 83.6895 28.6465 85.9813 29.9568C87.5519 30.8782 89.3609 30.4797 90.8065 29.6661C94.7925 26.9362 95.7728 21.5984 95.546 16.8961C95.3192 15.8818 95.1798 14.8075 94.4867 13.969C94.2731 13.7958 94.0644 13.7102 93.8699 13.6981ZM90.9995 17.4344C91.6641 20.009 90.8424 23.3423 89.3486 25.4153C88.9902 25.7178 88.593 26.0458 88.1574 25.7955C87.6407 25.2999 87.9291 21.7144 88.1775 20.9445C88.6956 19.4929 89.6768 18.3602 90.9994 17.4344H90.9995Z" fill="white"/>
<path d="M79.8881 15.0094C79.0255 18.6954 77.7533 22.1144 77.0385 25.9053L77.1764 26.0989C78.5741 26.2648 79.9561 26.0556 81.2983 26.2785C81.6631 26.9738 81.1654 27.7174 81.0634 28.4559C80.8587 29.0925 80.7082 29.7461 80.1875 30.1926L79.3502 30.3924L74.697 30.2101C73.6419 29.5524 72.862 28.1173 72.6001 26.9247C73.4063 22.4035 74.8257 18.2594 76.1722 14.0929C77.1575 13.6776 78.3207 14.1298 79.3649 14.4067C79.5621 14.5613 79.8979 14.6884 79.8881 15.0094Z" fill="white"/>
<path d="M73.4628 14.7822C73.4932 15.9544 73.0128 17.0011 72.579 17.9828L71.8983 18.2069C70.2136 18.0702 68.5078 18.0339 66.8597 18.0855C67.0853 18.4594 67.6403 18.5484 67.8561 19.0018C67.8854 19.5237 67.3934 20.1431 67.8376 20.4709C69.1033 20.5792 70.3296 20.3407 71.6166 20.7998C71.9177 21.3866 71.5811 22.1848 71.4621 22.8213C71.2651 23.4523 71.0685 24.0974 70.5671 24.5547C69.225 24.6231 67.8569 24.4553 66.5134 24.516C66.0606 24.9545 66.0282 25.6332 65.8617 26.2399C65.9396 26.699 66.5134 26.4709 66.8275 26.5717C67.9189 26.6302 69.0115 26.4229 70.112 26.7484C70.6039 27.8068 69.9552 29.0754 69.5448 30.001L69.0231 30.3347L63.399 30.2794C62.3952 30.0372 61.7295 28.9267 61.4818 27.9561C61.6106 26.9095 61.894 25.8071 62.1072 24.7408C61.9707 24.274 61.2501 24.3045 61.4702 23.6775C61.5935 22.6032 61.8057 21.5593 62.3415 20.7285C62.6557 20.3893 63.1877 20.7248 63.4445 20.1933C63.4637 19.448 64.082 18.8313 63.7718 18.0807C63.3068 18.0546 62.7059 17.953 62.7933 17.3452C63.2495 16.1123 63.1097 14.1894 64.5994 13.9379C67.0349 13.8049 69.5351 13.9304 72.0509 14.0773C72.5682 14.2212 73.4233 14.0882 73.4628 14.7822" fill="white"/>
<path d="M31.6499 10.0936C30.8837 13.389 29.7289 16.4508 28.9424 19.7475L26.6132 28.0461C26.565 28.6047 27.0035 29.2039 26.4642 29.6593C25.2315 30.0681 23.5236 29.8279 22.4404 29.1465L22.0343 28.3135C21.4133 24.823 20.8047 21.3153 20.1916 17.8234L19.9516 18.1978L17.212 29.368C17.0578 29.8715 16.5371 29.9876 16.0844 30.0553C14.8906 30.0179 13.2657 29.9805 12.6982 28.8896L12.7045 28.066C14.1273 21.8633 15.7702 15.7829 17.6709 9.87777C17.8063 9.48411 18.0904 9.08316 18.5246 9.00718C20.0977 8.98443 21.618 9.60021 22.7612 10.4881C23.6166 12.8475 24.1671 15.2607 24.5551 17.7005L24.7611 17.4935L27.17 9.84032C27.345 9.37724 27.7277 8.99963 28.2576 8.96387C29.4058 9.08006 31.1443 8.93689 31.6499 10.0936" fill="white"/>
<path d="M62.1797 15.253C61.235 18.7081 59.3276 21.8869 55.9743 23.473C56.986 25.6251 58.3718 27.6847 59.1885 29.8715C58.9954 31.1382 57.5297 31.507 56.5944 31.9094C55.3327 32.23 55.253 30.6135 54.6653 29.9508L52.6898 25.9083L52.4602 26.2874C52.2013 27.6629 51.9392 29.011 51.4431 30.2253C50.8154 30.7546 49.7729 30.2365 49.012 30.1151C48.5278 29.8587 47.7891 29.866 47.6641 29.1821L51.1057 16.0496C51.3828 15.3391 51.4383 14.5195 51.958 13.9786C53.0204 13.7051 54.5584 13.9164 55.4402 14.599C55.7174 15.7398 54.9663 16.7129 54.8176 17.8392C54.6228 18.4429 54.345 19.0134 54.2456 19.6782L54.372 19.8694C56.93 18.8721 57.6775 16.2858 58.8078 14.1522C59.4102 13.8357 60.206 14.1948 60.8318 14.32C61.3689 14.5044 61.9011 14.7466 62.1797 15.253Z" fill="white"/>
<path d="M48.4335 15.6615C48.655 16.8667 48.712 18.4324 47.8432 19.4222C46.9621 20.0502 45.8043 20.0295 44.8358 19.672C44.1995 19.0577 45.4698 17.7334 44.245 17.6988C42.7183 19.0818 42.3245 21.1632 41.7737 23.1481C41.778 24.0283 41.3746 25.056 42.0066 25.7272C43.3114 25.7997 42.9655 24.1742 43.9173 23.6987C44.7658 23.2526 45.9736 23.1436 46.8019 23.772C47.1891 24.4646 46.8171 25.4762 46.6198 26.1977C45.918 27.8933 44.6493 29.6282 42.7427 30.1158C41.7729 30.4085 40.6262 30.454 39.6273 30.0175C36.7893 27.9805 37.4179 24.278 38.0598 21.065C39.0745 17.8115 41.0669 14.042 44.8711 13.7055C46.3315 13.5027 47.9434 14.1114 48.4335 15.6615Z" fill="white"/>
<path d="M37.8054 15.0698L37.4104 16.8086L33.8879 29.8216C32.7755 30.5892 30.9954 30.072 29.9728 29.3439C29.4045 28.5903 30.114 27.7234 30.081 26.8458C31.2076 22.6905 32.2292 18.3744 33.7773 14.2771C34.7137 13.5451 36.2049 13.897 37.2902 14.3456C37.5104 14.5216 37.8594 14.7297 37.8054 15.0698Z" fill="white"/>
<path d="M150.3 15.7241C150.306 14.9896 150.85 14.4491 151.534 14.4575C152.21 14.4601 152.743 15.0219 152.734 15.7558C152.72 16.4923 152.176 17.0285 151.509 17.0182C150.829 17.0148 150.291 16.4571 150.3 15.7241ZM151.505 17.281C152.315 17.2936 153.025 16.6543 153.045 15.7563C153.055 14.8698 152.357 14.2147 151.542 14.2012C150.726 14.195 150.013 14.8297 150.002 15.7251C149.985 16.6052 150.682 17.2604 151.505 17.281ZM151.215 15.8599L151.51 15.8542L151.942 16.6419L152.239 16.6417L151.774 15.8474C152.012 15.8186 152.219 15.6793 152.22 15.3592C152.225 15.0231 152.022 14.8571 151.616 14.8394L150.955 14.8437L150.936 16.6223L151.204 16.6245L151.215 15.8601L151.215 15.8599ZM151.215 15.619L151.232 15.0758L151.572 15.0769C151.75 15.0812 151.951 15.1299 151.948 15.3521C151.953 15.6235 151.74 15.6355 151.52 15.6323L151.215 15.6188" fill="white"/>
</svg>
